common/src/main/resources/icons/expui/gutter/implementingFunctionInterface.svg

<svg xmlns="http://www.w3.org/2000/svg" width="14" height="14" fill="#C792EA" viewBox="0 0 24 24"><path d="M15.6 5.29c-1.1-.1-2.07.71-2.17 1.82L13.18 10H16v2h-3l-.44 5.07a3.986 3.986 0 0 1-4.33 3.63 4 4 0 0 1-3.06-1.87l1.5-1.5c.24.74.9 1.31 1.73 1.38 1.1.1 2.07-.71 2.17-1.82L11 12H8v-2h3.17l.27-3.07c.19-2.2 2.13-3.83 4.33-3.63 1.31.11 2.41.84 3.06 1.87l-1.5 1.5c-.24-.74-.9-1.31-1.73-1.38"/><path fill="#E57373" d="M19.5 12h-3V5.25l-2.625 2.625L12.06 6.06 18 .12l5.94 5.94-1.815 1.815L19.5 5.25z"/></svg>

<!--
  - The MIT License (MIT)
  -
  - Copyright (c) 2015-2023 Elior "Mallowigi" Boukhobza
  -
  - Permission is hereby granted, free of charge, to any person obtaining a copy
  - of this software and associated documentation files (the "Software"), to deal
  - in the Software without restriction, including without limitation the rights
  - to use, copy, modify, merge, publish, distribute, sublicense, and/or sell
  - copies of the Software, and to permit persons to whom the Software is
  - furnished to do so, subject to the following conditions:
  -
  - The above copyright notice and this permission notice shall be included in all
  - copies or substantial portions of the Software.
  -
  - THE SOFTWARE IS PROVIDED "AS IS", WITHOUT WARRANTY OF ANY KIND, EXPRESS OR
  - IMPLIED, INCLUDING BUT NOT LIMITED TO THE WARRANTIES OF MERCHANTABILITY,
  - FITNESS FOR A PARTICULAR PURPOSE AND NONINFRINGEMENT. IN NO EVENT SHALL THE
  - AUTHORS OR COPYRIGHT HOLDERS BE LIABLE FOR ANY CLAIM, DAMAGES OR OTHER
  - LIABILITY, WHETHER IN AN ACTION OF CONTRACT, TORT OR OTHERWISE, ARISING FROM,
  - OUT OF OR IN CONNECTION WITH THE SOFTWARE OR THE USE OR OTHER DEALINGS IN THE
  - SOFTWARE.
  -
  -->


<svg xmlns="http://www.w3.org/2000/svg" version="1.1" width="14px" height="14px" viewBox="0 0 24 24" fill="#C792EA">
  <path
    d="M15.6,5.29C14.5,5.19 13.53,6 13.43,7.11L13.18,10H16V12H13L12.56,17.07C12.37,19.27 10.43,20.9 8.23,20.7C6.92,20.59 5.82,19.86 5.17,18.83L6.67,17.33C6.91,18.07 7.57,18.64 8.4,18.71C9.5,18.81 10.47,18 10.57,16.89L11,12H8V10H11.17L11.44,6.93C11.63,4.73 13.57,3.1 15.77,3.3C17.08,3.41 18.18,4.14 18.83,5.17L17.33,6.67C17.09,5.93 16.43,5.36 15.6,5.29Z"/>
  <path fill="#E57373" transform="scale(0.75) translate(12 -4)"
        d="M14,20H10V11L6.5,14.5L4.08,12.08L12,4.16L19.92,12.08L17.5,14.5L14,11V20Z"/>
</svg>
